packages/radix-icons/outline/15/layout.svg

<svg width="15" height="15" fill="none" xmlns="http://www.w3.org/2000/svg">
  <path
    fill-rule="evenodd"
    clip-rule="evenodd"
    d="M9 5H6V10H9V5ZM10 5V10H13V5H10ZM2 5H5V10H2L2 5ZM2 4C1.44772 4 1 4.44772 1 5V10C1 10.5523 1.44772 11 2 11H13C13.5523 11 14 10.5523 14 10V5C14 4.44772 13.5523 4 13 4H2Z"
    fill="currentColor"
  />
</svg>

<svg width="15" height="15" fill="none" xmlns="http://www.w3.org/2000/svg">
  <path
    fill-rule="evenodd"
    clip-rule="evenodd"
    d="M9 5H6v5h3V5zm1 0v5h3V5h-3zM2 5h3v5H2V5zm0-1a1 1 0 00-1 1v5a1 1 0 001 1h11a1 1 0 001-1V5a1 1 0 00-1-1H2z"
    fill="currentColor"
  />
</svg>
